X: 1885
T: Squeezebox Polka
C:David Johnson, Penrose, NSW
B: australian traditional tunes wiki
M:2/4
L:1/8
R: Polka
Q: 1/4=100
K:G
V:1 
|:"G"GG G/A/B/c/|ddB2|"D7"cc A>F|"G"G/F/G/B/d2|GG G/A/B/c/|ddB2|"D7"cc A>F|"G"GG G2:|
|:"C"gg g>e|"G"dd BB|"D7"cc A>F|"G"GBd2|"C"gg g>e|"G"ddB2|"D7"cc A>F|"G"GGG2:|
% abcbook-tune_id 6342d53a9fb7c8306a92a724


% abcbook-boost 0
% abcbook-tablature 
% abcbook-transpose 
% abcbook-lastupdated 1665324390493
% abcbook-soundfonts 
% abcbook-repeats 1
% NFF Book 2020

